src/qt/pivx/res/img/img-empty-staking-on.svg

<?xml version="1.0" encoding="UTF-8" standalone="no"?>
<svg
   xmlns:dc="http://purl.org/dc/elements/1.1/"
   xmlns:cc="http://creativecommons.org/ns#"
   xmlns:rdf="http://www.w3.org/1999/02/22-rdf-syntax-ns#"
   xmlns:svg="http://www.w3.org/2000/svg"
   xmlns="http://www.w3.org/2000/svg"
   version="1.1"
   viewBox="0 0 100 100"
   height="100"
   width="100"
   id="ic_staking_on">
  <metadata
     id="metadata20">
    <rdf:RDF>
      <cc:Work
         rdf:about="">
        <dc:format>image/svg+xml</dc:format>
        <dc:type
           rdf:resource="http://purl.org/dc/dcmitype/StillImage" />
        <dc:title></dc:title>
      </cc:Work>
    </rdf:RDF>
  </metadata>
  <defs
     id="defs4">
    <style
       id="style2"
       type="text/css">
            .cls-1{fill:#d6d6d6}.cls-2{fill:#666}.cls-3{fill:none}
        </style>
  </defs>
  <g
     id="Group_9016"
     data-name="Group 9016">
    <ellipse
       id="Ellipse_613"
       cx="12"
       cy="4"
       class="cls-1"
       data-name="Ellipse 613"
       rx="12"
       ry="4"
       transform="translate(68,52)"
       style="fill:#d6d6d6" />
    <ellipse
       id="Ellipse_614"
       cx="12"
       cy="4"
       class="cls-1"
       data-name="Ellipse 614"
       rx="12"
       ry="4"
       transform="translate(52,64)"
       style="fill:#d6d6d6" />
    <path
       id="Rectangle_4669"
       d="M 0,0 H 14 V 14 H 0 Z"
       class="cls-1"
       data-name="Rectangle 4669"
       transform="translate(32,24)"
       style="fill:#d6d6d6" />
  </g>
  <path
     style="fill:#666666"
     data-name="Rectangle 4670"
     class="cls-2"
     d="m 12,60 h 2 v 4 h -2 z"
     id="Rectangle_4670" />
  <path
     style="fill:#666666"
     data-name="Path 18975"
     class="cls-2"
     d="M 92.046,57.994 A 2.767,2.767 0 0 0 93,56 c 0,-3.283 -6.54,-5 -13,-5 -6.46,0 -13,1.717 -13,5 a 2.767,2.767 0 0 0 0.954,1.994 2.573,2.573 0 0 0 0,4 3.171,3.171 0 0 0 -0.774,1.151 Q 66.6,63.093 66,63.06 V 39 h 5 V 23 H 52.644 A 8.993,8.993 0 1 0 39,11.9 8.994,8.994 0 1 0 25.356,23 H 7 v 16 h 5 v 17 h 2 V 39 h 50 v 24 c -6.46,0 -13,1.717 -13,5 a 2.767,2.767 0 0 0 0.954,1.994 2.573,2.573 0 0 0 0,4 A 3.325,3.325 0 0 0 51.226,75 H 14 v -7 h -2 v 9 h 39.23 a 3.369,3.369 0 0 0 0.724,0.994 2.573,2.573 0 0 0 0,4 2.573,2.573 0 0 0 0,4 A 2.768,2.768 0 0 0 51,88 c 0,3.283 6.54,5 13,5 5.874,0 11.8,-1.424 12.826,-4.15 1.042,0.093 2.106,0.15 3.174,0.15 6.46,0 13,-1.717 13,-5 a 2.768,2.768 0 0 0 -0.954,-2.006 2.573,2.573 0 0 0 0,-4 2.573,2.573 0 0 0 0,-4 2.573,2.573 0 0 0 0,-4 2.573,2.573 0 0 0 0,-4 2.573,2.573 0 0 0 0,-4 2.573,2.573 0 0 0 0,-4 z M 31,37 H 9 V 25 H 31 Z M 24,16 a 7,7 0 0 1 14,0 v 7 H 31 A 7.008,7.008 0 0 1 24,16 Z M 45,37 H 33 V 25 H 45 Z M 40,23 v -7 a 7,7 0 1 1 7,7 z m 7,14 V 25 h 22 v 12 z m 4,39 A 2.311,2.311 0 0 0 51.061,76.515 2.2,2.2 0 0 1 51,76 Z M 64,91 C 56.883,91 53,89.018 53,88 53,87.759 53.247,87.461 53.678,87.151 56.179,88.37 60.1,89 64,89 67.9,89 71.821,88.37 74.322,87.151 74.753,87.461 75,87.759 75,88 c 0,1.018 -3.883,3 -11,3 z m 0,-4 C 56.883,87 53,85.018 53,84 53,83.759 53.247,83.461 53.678,83.151 56.179,84.37 60.1,85 64,85 67.9,85 71.821,84.37 74.322,83.151 74.753,83.461 75,83.759 75,84 c 0,1.018 -3.883,3 -11,3 z m 0,-4 C 56.883,83 53,81.018 53,80 53,79.759 53.247,79.461 53.678,79.151 56.179,80.37 60.1,81 64,81 67.9,81 71.821,80.37 74.322,79.151 74.753,79.461 75,79.759 75,80 c 0,1.018 -3.883,3 -11,3 z m 0,-4 C 56.883,79 53,77.018 53,76 53,75.759 53.247,75.461 53.678,75.151 56.179,76.37 60.1,77 64,77 67.9,77 71.821,76.37 74.322,75.151 74.753,75.461 75,75.759 75,76 c 0,1.018 -3.883,3 -11,3 z m 0,-4 C 56.883,75 53,73.018 53,72 53,71.759 53.247,71.461 53.678,71.151 56.179,72.37 60.1,73 64,73 67.9,73 71.821,72.37 74.322,71.151 74.753,71.461 75,71.759 75,72 c 0,1.018 -3.883,3 -11,3 z m 0,-4 c -7.117,0 -11,-1.982 -11,-3 0,-1.018 3.883,-3 11,-3 7.117,0 11,1.982 11,3 0,1.018 -3.883,3 -11,3 z m 16,16 c -1.207,0 -2.3,-0.068 -3.313,-0.168 a 3.446,3.446 0 0 0 -0.641,-0.838 3.219,3.219 0 0 0 0.781,-1.151 C 77.868,84.943 78.927,85 80,85 83.9,85 87.821,84.37 90.322,83.151 90.753,83.461 91,83.759 91,84 c 0,1.018 -3.883,3 -11,3 z m 0,-4 c -1.207,0 -2.3,-0.068 -3.313,-0.168 a 3.446,3.446 0 0 0 -0.641,-0.838 3.219,3.219 0 0 0 0.781,-1.151 C 77.868,80.943 78.927,81 80,81 83.9,81 87.821,80.37 90.322,79.151 90.753,79.461 91,79.759 91,80 c 0,1.018 -3.883,3 -11,3 z m 0,-4 c -1.207,0 -2.3,-0.068 -3.313,-0.168 a 3.446,3.446 0 0 0 -0.641,-0.838 3.219,3.219 0 0 0 0.781,-1.151 C 77.868,76.943 78.927,77 80,77 83.9,77 87.821,76.37 90.322,75.151 90.753,75.461 91,75.759 91,76 c 0,1.018 -3.883,3 -11,3 z m 0,-4 c -1.207,0 -2.3,-0.068 -3.313,-0.168 a 3.446,3.446 0 0 0 -0.641,-0.838 3.219,3.219 0 0 0 0.781,-1.151 C 77.868,72.943 78.927,73 80,73 83.9,73 87.821,72.37 90.322,71.151 90.753,71.461 91,71.759 91,72 c 0,1.018 -3.883,3 -11,3 z m 0,-4 c -1.207,0 -2.3,-0.068 -3.313,-0.168 a 3.446,3.446 0 0 0 -0.641,-0.838 3.219,3.219 0 0 0 0.781,-1.151 C 77.868,68.943 78.927,69 80,69 83.9,69 87.821,68.37 90.322,67.151 90.753,67.461 91,67.759 91,68 c 0,1.018 -3.883,3 -11,3 z m 0,-4 c -1.2,0 -2.287,-0.067 -3.3,-0.166 -0.621,-1.162 -2.175,-2.062 -4.213,-2.7 A 31.139,31.139 0 0 0 80,65 c 3.9,0 7.821,-0.63 10.322,-1.849 C 90.753,63.461 91,63.759 91,64 c 0,1.018 -3.883,3 -11,3 z M 69.368,63.417 a 2.722,2.722 0 0 1 0.31,-0.266 13.563,13.563 0 0 0 1.826,0.7 26.483,26.483 0 0 0 -2.136,-0.434 z M 80,63 C 72.883,63 69,61.018 69,60 69,59.759 69.247,59.461 69.678,59.151 72.179,60.37 76.1,61 80,61 83.9,61 87.821,60.37 90.322,59.151 90.753,59.461 91,59.759 91,60 c 0,1.018 -3.883,3 -11,3 z m 0,-4 c -7.117,0 -11,-1.982 -11,-3 0,-1.018 3.883,-3 11,-3 7.117,0 11,1.982 11,3 0,1.018 -3.883,3 -11,3 z"
     id="Path_18975" />
  <path
     data-name="Rectangle 4672"
     class="cls-3"
     d="M0 0h100v100H0z"
     id="Rectangle_4672" />
</svg>

<?xml version="1.0" encoding="utf-8"?>
<!-- Generator: Adobe Illustrator 25.2.0, SVG Export Plug-In . SVG Version: 6.00 Build 0)  -->
<svg version="1.1"
	 id="ic_staking_on" inkscape:version="0.92.4 (5da689c313, 2019-01-14)" sodipodi:docname="img-empty-staking-on.svg" xmlns:cc="http://creativecommons.org/ns#" xmlns:dc="http://purl.org/dc/elements/1.1/" xmlns:inkscape="http://www.inkscape.org/namespaces/inkscape" xmlns:rdf="http://www.w3.org/1999/02/22-rdf-syntax-ns#" xmlns:sodipodi="http://sodipodi.sourceforge.net/DTD/sodipodi-0.dtd" xmlns:svg="http://www.w3.org/2000/svg"
	 xmlns="http://www.w3.org/2000/svg" xmlns:xlink="http://www.w3.org/1999/xlink" x="0px" y="0px" viewBox="0 0 100 100"
	 style="enable-background:new 0 0 100 100;" xml:space="preserve">
<style type="text/css">
	.st0{fill:#2EA1FF;}
	.st1{fill:#666666;}
	.st2{fill:#EFEFEF;}
</style>
<polygon class="st0" points="76.7,79.8 79.4,79.8 84.3,79.8 88.2,79 90.4,78.2 91.4,79.2 92,80.7 90.1,83 83.5,83.6 78.8,84.1 
	77.3,83.7 75.7,82.4 "/>
<path class="st0" d="M64.6,72l8.7-1l1-0.8l1.4,2.4l-3.5,1.9c0,0-4.8,1.7-5,1.5s-3.7-0.3-3.7-0.3"/>
<rect x="14" y="39" class="st0" width="50.6" height="36"/>
<sodipodi:namedview  bordercolor="#666666" borderopacity="1" gridtolerance="10" guidetolerance="10" id="namedview18" inkscape:current-layer="Group_9016" inkscape:cx="35.345373" inkscape:cy="50.554864" inkscape:pageopacity="0" inkscape:pageshadow="2" inkscape:window-height="480" inkscape:window-width="640" inkscape:zoom="5.3913705" objecttolerance="10" pagecolor="#ffffff" showgrid="false">
	</sodipodi:namedview>
<g id="Group_9018">
	<g id="Group_9016">
		<ellipse id="Ellipse_613" class="st0" cx="80" cy="56" rx="12" ry="4"/>
		<ellipse id="Ellipse_614" class="st0" cx="64" cy="68" rx="12" ry="4"/>
		<path id="Rectangle_4669" class="st0" d="M32,24h14v14H32V24z"/>
	</g>
	<g id="Group_9017">
		<path id="Rectangle_4670" class="st1" d="M12,60h2v4h-2V60z"/>
		<path id="Path_18975" class="st1" d="M92,58c0.6-0.5,0.9-1.2,1-2c0-3.3-6.5-5-13-5s-13,1.7-13,5c0,0.8,0.4,1.5,1,2
			c-1.1,0.9-1.3,2.5-0.4,3.6c0.1,0.1,0.2,0.3,0.4,0.4c-0.3,0.3-0.6,0.7-0.8,1.2c-0.4,0-0.8-0.1-1.2-0.1V39h5V23H52.6
			c3.9-3.1,4.5-8.8,1.4-12.6S45.2,5.9,41.4,9c-1,0.8-1.8,1.8-2.4,2.9C36.7,7.5,31.3,5.7,26.9,8s-6.2,7.7-3.9,12.1
			c0.6,1.1,1.4,2.1,2.4,2.9H7v16h5v17h2V39h50v24c-6.5,0-13,1.7-13,5c0,0.8,0.4,1.5,1,2c-1.1,0.9-1.3,2.5-0.4,3.6
			c0.1,0.1,0.2,0.3,0.4,0.4c-0.3,0.3-0.6,0.6-0.7,1H14v-7h-2v9h39.2c0.2,0.4,0.4,0.7,0.7,1c-1.1,0.9-1.3,2.5-0.4,3.6
			c0.1,0.1,0.2,0.3,0.4,0.4c-1.1,0.9-1.3,2.5-0.4,3.6c0.1,0.1,0.2,0.3,0.4,0.4c-0.6,0.5-0.9,1.2-1,2c0,3.3,6.5,5,13,5
			c5.9,0,11.8-1.4,12.8-4.2c1,0.1,2.1,0.2,3.2,0.2c6.5,0,13-1.7,13-5c0-0.8-0.4-1.5-1-2c1.1-0.9,1.3-2.5,0.4-3.6
			c-0.1-0.1-0.2-0.3-0.4-0.4c1.1-0.9,1.3-2.5,0.4-3.6c-0.1-0.1-0.2-0.3-0.4-0.4c1.1-0.9,1.3-2.5,0.4-3.6c-0.1-0.1-0.2-0.3-0.4-0.4
			c1.1-0.9,1.3-2.5,0.4-3.6c-0.1-0.1-0.2-0.3-0.4-0.4c1.1-0.9,1.3-2.5,0.4-3.6c-0.1-0.1-0.2-0.3-0.4-0.4c1.1-0.9,1.3-2.5,0.4-3.6
			C92.3,58.2,92.2,58.1,92,58z M31,37H9V25h22V37z M24,16c0-3.9,3.1-7,7-7s7,3.1,7,7v7h-7C27.1,23,24,19.9,24,16z M45,37H33V25h12
			V37z M40,23v-7c0-3.9,3.1-7,7-7s7,3.1,7,7s-3.1,7-7,7H40z M47,37V25h22v12H47z M51,76c0,0.2,0,0.3,0.1,0.5C51,76.3,51,76.2,51,76z
			 M64,91c-7.1,0-11-2-11-3c0-0.2,0.2-0.5,0.7-0.8C56.2,88.4,60.1,89,64,89s7.8-0.6,10.3-1.8c0.4,0.3,0.7,0.6,0.7,0.8
			C75,89,71.1,91,64,91z M64,87c-7.1,0-11-2-11-3c0-0.2,0.2-0.5,0.7-0.8C56.2,84.4,60.1,85,64,85s7.8-0.6,10.3-1.8
			c0.4,0.3,0.7,0.6,0.7,0.8C75,85,71.1,87,64,87z M64,83c-7.1,0-11-2-11-3c0-0.2,0.2-0.5,0.7-0.8C56.2,80.4,60.1,81,64,81
			s7.8-0.6,10.3-1.8c0.4,0.3,0.7,0.6,0.7,0.8C75,81,71.1,83,64,83z M64,79c-7.1,0-11-2-11-3c0-0.2,0.2-0.5,0.7-0.8
			C56.2,76.4,60.1,77,64,77s7.8-0.6,10.3-1.8c0.4,0.3,0.7,0.6,0.7,0.8C75,77,71.1,79,64,79z M64,75c-7.1,0-11-2-11-3
			c0-0.2,0.2-0.5,0.7-0.8C56.2,72.4,60.1,73,64,73s7.8-0.6,10.3-1.8c0.4,0.3,0.7,0.6,0.7,0.8C75,73,71.1,75,64,75z M64,71
			c-7.1,0-11-2-11-3s3.9-3,11-3s11,2,11,3S71.1,71,64,71z M80,87c-1.2,0-2.3-0.1-3.3-0.2c-0.2-0.3-0.4-0.6-0.6-0.8
			c0.3-0.3,0.6-0.7,0.8-1.2c1,0.1,2.1,0.2,3.2,0.2c3.9,0,7.8-0.6,10.3-1.8c0.4,0.3,0.7,0.6,0.7,0.8C91,85,87.1,87,80,87z M80,83
			c-1.2,0-2.3-0.1-3.3-0.2c-0.2-0.3-0.4-0.6-0.6-0.8c0.3-0.3,0.6-0.7,0.8-1.2c1,0.1,2.1,0.2,3.2,0.2c3.9,0,7.8-0.6,10.3-1.8
			c0.4,0.3,0.7,0.6,0.7,0.8C91,81,87.1,83,80,83z M80,79c-1.2,0-2.3-0.1-3.3-0.2c-0.2-0.3-0.4-0.6-0.6-0.8c0.3-0.3,0.6-0.7,0.8-1.2
			c1,0.1,2.1,0.2,3.2,0.2c3.9,0,7.8-0.6,10.3-1.8c0.4,0.3,0.7,0.6,0.7,0.8C91,77,87.1,79,80,79z M80,75c-1.2,0-2.3-0.1-3.3-0.2
			c-0.2-0.3-0.4-0.6-0.6-0.8c0.3-0.3,0.6-0.7,0.8-1.2c1,0.1,2.1,0.2,3.2,0.2c3.9,0,7.8-0.6,10.3-1.8c0.4,0.3,0.7,0.6,0.7,0.8
			C91,73,87.1,75,80,75z M80,71c-1.2,0-2.3-0.1-3.3-0.2c-0.2-0.3-0.4-0.6-0.6-0.8c0.3-0.3,0.6-0.7,0.8-1.2c1,0.1,2.1,0.2,3.2,0.2
			c3.9,0,7.8-0.6,10.3-1.8c0.4,0.3,0.7,0.6,0.7,0.8C91,69,87.1,71,80,71z M80,67c-1.2,0-2.3-0.1-3.3-0.2c-0.6-1.2-2.2-2.1-4.2-2.7
			c2.5,0.6,5,0.9,7.5,0.9c3.9,0,7.8-0.6,10.3-1.8c0.4,0.3,0.7,0.6,0.7,0.8C91,65,87.1,67,80,67z M69.4,63.4c0.1-0.1,0.2-0.2,0.3-0.3
			c0.6,0.3,1.2,0.5,1.8,0.7C70.8,63.7,70.1,63.5,69.4,63.4z M80,63c-7.1,0-11-2-11-3c0-0.2,0.2-0.5,0.7-0.8C72.2,60.4,76.1,61,80,61
			s7.8-0.6,10.3-1.8c0.4,0.3,0.7,0.6,0.7,0.8C91,61,87.1,63,80,63z M80,59c-7.1,0-11-2-11-3s3.9-3,11-3s11,2,11,3S87.1,59,80,59z"/>
	</g>
</g>
<g>
	<path class="st2" d="M32,48.5l-2.7,0l-6.8,6.9l15.3,13.7c0,0,0,0,0,0L27.3,55.5"/>
	<path class="st2" d="M47.3,49.3l2.7,0.2l6.1,6.8L40.1,67.6c0,0,0,0,0,0L51.3,56"/>
	<path class="st2" d="M31.5,56.7l-1.9-2.1l-0.2-10.2l19.6,2.8c0,0,0,0,0,0l-16.1,1"/>
	<g>
		<path class="st2" d="M40.4,51.9h-3.2l-0.3,1.8l2.9,0c1.4,0,1.8,0.6,1.8,1.7c0,0.5-0.2,1.4-0.3,1.7c-0.2,0.8-0.7,1.7-2.3,1.7
			l-2.8,0l-0.3,1.8h3.2c1.1,0,1.6-0.2,2.1-0.4c1.1-0.6,1.8-2,2-3.7C43.6,53.7,43.1,51.9,40.4,51.9"/>
		<path class="st2" d="M35.9,55.4c-0.8,0-0.9,0.7-1,1.1c-0.1,0.5-0.1,0.7-0.1,0.7H38c0.8,0,0.9-0.7,1-1.1c0.1-0.5,0.1-0.7,0.1-0.7
			H35.9z"/>
	</g>
</g>
</svg>
